!!!OTL: On This Hill
!!!ONM: 92.
**kern
*clefG2
*k[]
*F:
*M4/4
*>[A,A]
*>norep[A]
*>A
=!|:
*MM80
{4c
=1
4f
4f
4f
4c
=2
4f
4f
4f}
{4c
=3
8f
8f
4f
4g
4f
=4
8a
8a
4g
4g}
{4c
=5
4f
8f
8f
4f}
{4c
=6
8f
8f
4f
4g
8f
8g
=7
8a
8f
4f
4f}
==:|!
*-
!!!CNT: Folksongs of Maritime Canada
!!!MRD: 1928///-1932///
!!!OCL: Helen Creighton
!!!YOR: Songs and Ballads from Nova Scotia
!!!PPR: J.M. Dent & Sons, Limited
!!!PPP: Toronto, Canada
!!!PDT: 1932///
!!!reprint: Dover Publications, 1992: ISBN 0-486-21703-5
!!!ENC1: Craig Stuart Sapp (music and bibliographic data)                       
!!!ENC2: Marcus Pearce (phrase markings and key designations)                   
!!!ENC3: Darrell Conklin (phrase markings and key designations)   
!!!END: 2002/04/10/
!!!EEV: 2004/06/05
!!!MPN: Mr. Charles Hartlan
!!!PPG: 199
!!!EFL: 93/152
!!!ARE: Canada; Nova Scotia
!!!verses: 4
!!!VTS: 3969119137
